src/assets/images/core1.svg

<svg width="57" height="57" viewBox="0 0 57 57" fill="none" xmlns="http://www.w3.org/2000/svg">
<circle cx="28.5" cy="28.5" r="28.5" fill="#5CC4A8"/>
<g clip-path="url(#clip0_540_6)">
<path d="M29.0989 16.0005C29.4919 16.0005 29.8789 16.026 30.2389 16.086C30.5934 16.1325 30.9433 16.2098 31.2844 16.317C31.6264 16.4205 31.9609 16.5495 32.2954 16.7115C32.6209 16.866 32.9554 17.055 33.2899 17.2605C33.8554 17.6205 34.4119 17.9115 34.9789 18.144C36.0951 18.5908 37.2754 18.8566 38.4754 18.9315C39.0844 18.975 39.7099 19.0005 40.3609 19.0005V25.0005C40.3609 26.1405 40.2154 27.2205 39.9244 28.2495C39.6449 29.2639 39.2477 30.242 38.7409 31.164C38.2363 32.0848 37.6392 32.9518 36.9589 33.7515C36.2682 34.5695 35.5203 35.3374 34.7209 36.0495C33.9109 36.7638 33.0578 37.4275 32.1664 38.037C31.2754 38.655 30.3754 39.2295 29.4754 39.7515L29.1154 39.966L28.7554 39.7515C27.8302 39.2159 26.9265 38.644 26.0464 38.037C25.15 37.4344 24.2964 36.7703 23.4919 36.0495C22.693 35.3374 21.9456 34.5695 21.2554 33.7515C20.5769 32.9484 19.9772 32.0819 19.4644 31.164C18.9663 30.2379 18.5695 29.2608 18.2809 28.2495C17.988 27.1917 17.8437 26.0982 17.8519 25.0005V19.0005C18.5044 19.0005 19.1299 18.975 19.7389 18.9315C20.3384 18.8899 20.934 18.8042 21.5209 18.675C22.0954 18.546 22.6699 18.375 23.2354 18.144C23.8222 17.9072 24.3848 17.6144 24.9154 17.2695C25.5754 16.8405 26.2444 16.524 26.9044 16.3155C27.6152 16.0976 28.3555 15.9914 29.0989 16.0005ZM38.8519 20.475C37.7164 20.42 36.5916 20.2301 35.5009 19.9095C34.416 19.5859 33.3827 19.1097 32.4319 18.495C31.9387 18.1713 31.4032 17.9174 30.8404 17.7405C30.2782 17.5706 29.6936 17.4867 29.1064 17.4915C28.5148 17.4877 27.9259 17.5716 27.3589 17.7405C26.7953 17.9117 26.2604 18.166 25.7719 18.495C24.8195 19.113 23.7835 19.5914 22.6954 19.9155C21.6319 20.2245 20.5189 20.4135 19.3519 20.4825V25.008C19.3519 26.0025 19.4809 26.9535 19.7389 27.87C20.0017 28.7786 20.3639 29.6554 20.8189 30.4845C21.2793 31.3224 21.822 32.1122 22.4389 32.8425C23.0644 33.579 23.7319 34.2645 24.4519 34.9155C25.1719 35.568 25.9264 36.168 26.7154 36.7245C27.5119 37.2825 28.3099 37.788 29.1064 38.25C29.922 37.7752 30.7172 37.2663 31.4899 36.7245C32.2841 36.1698 33.0426 35.5656 33.7609 34.9155C34.4809 34.2645 35.1499 33.579 35.7754 32.8425C36.3924 32.1123 36.935 31.3224 37.3954 30.4845C37.8484 29.6564 38.2052 28.7792 38.4589 27.87C38.7247 26.9395 38.8571 25.9758 38.8519 25.008V20.475Z" fill="white"/>
<path fill-rule="evenodd" clip-rule="evenodd" d="M34.6884 23.0641L34.0284 22.4971L33.4194 22.5496L26.8794 30.2716L24.6519 27.0916L24.0519 26.9896L23.3574 27.4861L23.2539 28.0861L26.1174 32.1751L26.4429 32.3551L27.1284 32.3971L27.4794 32.2441L34.7319 23.6716L34.6884 23.0641Z" fill="white"/>
</g>
<defs>
<clipPath id="clip0_540_6">
<rect width="24" height="24" fill="white" transform="translate(17 16)"/>
</clipPath>
</defs>
</svg>

<svg xmlns="http://www.w3.org/2000/svg" width="57" height="57" fill="none"><circle cx="28.5" cy="28.5" r="28.5" fill="#5CC4A8"/><g fill="#fff" clip-path="url(#a)"><path d="M29.099 16a7 7 0 0 1 1.14.086 6 6 0 0 1 1.045.231 7 7 0 0 1 1.011.395c.326.154.66.343.995.549.565.36 1.122.65 1.689.883 1.116.447 2.296.713 3.496.788a27 27 0 0 0 1.886.069v6c0 1.14-.146 2.22-.437 3.249a13.5 13.5 0 0 1-1.183 2.914 15.5 15.5 0 0 1-1.782 2.587 23 23 0 0 1-2.238 2.299 26 26 0 0 1-2.555 1.987 40 40 0 0 1-2.69 1.715l-.36.214-.36-.215a41 41 0 0 1-2.71-1.714 23.4 23.4 0 0 1-4.79-4.285 16.4 16.4 0 0 1-1.792-2.588 14.6 14.6 0 0 1-1.183-2.915 11.8 11.8 0 0 1-.43-3.248v-6c.653 0 1.279-.026 1.888-.07q.9-.062 1.782-.256a11 11 0 0 0 1.714-.531 10 10 0 0 0 1.68-.874 8.2 8.2 0 0 1 1.99-.954A7.2 7.2 0 0 1 29.098 16m9.753 4.475a14.3 14.3 0 0 1-3.351-.566 12 12 0 0 1-3.07-1.414 6.4 6.4 0 0 0-1.59-.755 5.8 5.8 0 0 0-1.735-.248 6 6 0 0 0-1.747.248 6 6 0 0 0-1.587.755 11.9 11.9 0 0 1-3.077 1.42 15 15 0 0 1-3.343.568v4.525c0 .995.129 1.945.387 2.862.263.909.625 1.785 1.08 2.614a14.4 14.4 0 0 0 1.62 2.358 22 22 0 0 0 2.013 2.074c.72.652 1.474 1.252 2.263 1.809a33 33 0 0 0 2.391 1.525q1.224-.713 2.384-1.526a23 23 0 0 0 2.27-1.808 22 22 0 0 0 2.015-2.073 14.4 14.4 0 0 0 1.62-2.359c.453-.828.81-1.705 1.064-2.614.266-.93.398-1.894.393-2.862z"/><path fill-rule="evenodd" d="m34.688 23.064-.66-.567-.609.053-6.54 7.722-2.227-3.18-.6-.102-.695.496-.103.6 2.863 4.09.326.18.685.041.351-.153 7.253-8.572z" clip-rule="evenodd"/></g><defs><clipPath id="a"><path fill="#fff" d="M17 16h24v24H17z"/></clipPath></defs></svg>
